src/assets/svg/password.svg

<svg viewBox="0 0 25 25" fill="none" xmlns="http://www.w3.org/2000/svg">
<g id="Frame" clip-path="url(#clip0_1_2305)">
<path id="Vector" d="M19.1847 10.0972H20.1944C20.4622 10.0972 20.719 10.2036 20.9084 10.393C21.0977 10.5823 21.2041 10.8391 21.2041 11.1069V21.2042C21.2041 21.472 21.0977 21.7288 20.9084 21.9182C20.719 22.1076 20.4622 22.2139 20.1944 22.2139H4.03878C3.77098 22.2139 3.51416 22.1076 3.32479 21.9182C3.13543 21.7288 3.02905 21.472 3.02905 21.2042L3.02905 11.1069C3.02905 10.8391 3.13543 10.5823 3.32479 10.393C3.51416 10.2036 3.77098 10.0972 4.03878 10.0972H5.04851V9.08749C5.04851 8.1593 5.23133 7.24019 5.58653 6.38265C5.94174 5.52512 6.46237 4.74594 7.1187 4.0896C7.77503 3.43327 8.55421 2.91264 9.41175 2.55743C10.2693 2.20223 11.1884 2.01941 12.1166 2.01941C13.0448 2.01941 13.9639 2.20223 14.8214 2.55743C15.679 2.91264 16.4581 3.43327 17.1145 4.0896C17.7708 4.74594 18.2914 5.52512 18.6466 6.38265C19.0019 7.24019 19.1847 8.1593 19.1847 9.08749V10.0972ZM5.04851 12.1167L5.04851 20.1945H19.1847V12.1167L5.04851 12.1167ZM11.1069 14.1361H13.1263L13.1263 18.175H11.1069L11.1069 14.1361ZM17.1652 10.0972V9.08749C17.1652 7.74851 16.6333 6.46437 15.6865 5.51757C14.7397 4.57077 13.4556 4.03886 12.1166 4.03886C10.7776 4.03886 9.49347 4.57077 8.54667 5.51757C7.59987 6.46437 7.06796 7.74851 7.06796 9.08749L7.06796 10.0972H17.1652Z"/>
</g>
<defs>
<clipPath id="clip0_1_2305">
<rect width="24.2334" height="24.2334"/>
</clipPath>
</defs>
</svg>

<svg viewBox="0 0 25 25" fill="none" xmlns="http://www.w3.org/2000/svg"><g clip-path="url(#a)"><path d="M19.185 10.097h1.01a1.01 1.01 0 0 1 1.01 1.01v10.097a1.01 1.01 0 0 1-1.01 1.01H4.038a1.01 1.01 0 0 1-1.01-1.01V11.107a1.01 1.01 0 0 1 1.01-1.01h1.01v-1.01a7.068 7.068 0 0 1 14.136 0zm-14.136 2.02v8.078h14.136v-8.078zm6.058 2.02h2.02v4.038h-2.02zm6.058-4.04v-1.01a5.049 5.049 0 1 0-10.097 0v1.01z"/></g><defs><clipPath id="a"><path d="M0 0h24.233v24.233H0z"/></clipPath></defs></svg>
